src/components/icons/SVG/table2.svg

<!-- Generated by IcoMoon.io -->
<svg version="1.1" xmlns="http://www.w3.org/2000/svg" width="32" height="32" viewBox="0 0 32 32">
<title>table2</title>
<path d="M0 2v28h32v-28h-32zM12 20v-6h8v6h-8zM20 22v6h-8v-6h8zM20 6v6h-8v-6h8zM10 6v6h-8v-6h8zM2 14h8v6h-8v-6zM22 14h8v6h-8v-6zM22 12v-6h8v6h-8zM2 22h8v6h-8v-6zM22 28v-6h8v6h-8z"></path>
</svg>

<svg xmlns="http://www.w3.org/2000/svg" width="32" height="32"><path d="M0 2v28h32V2H0zm12 18v-6h8v6h-8zm8 2v6h-8v-6h8zm0-16v6h-8V6h8zM10 6v6H2V6h8zm-8 8h8v6H2v-6zm20 0h8v6h-8v-6zm0-2V6h8v6h-8zM2 22h8v6H2v-6zm20 6v-6h8v6h-8z"/></svg>
